X: 2
T: The Four Pound Cheque
R: polka
M: 2/4
L: 1/8
K: Gmaj
dg eg/e/ | dG Bd | cA eA | d>c BG | dg eg/e/ | dG Bd | cA d>c | BG G2 :|dg ba/b/ | c'b ag | fd ad | a>g fd | dg ba/b/ | c'b a>g | fd ef | g2 g2:|


Tune 786	Setting 29292

